; generated by PrusaSlicer 2.3.3+win64 on 2021-10-11 at 15:47:02 UTC

; 

; external perimeters extrusion width = 0.45mm
; perimeters extrusion width = 0.45mm
; infill extrusion width = 0.45mm
; solid infill extrusion width = 0.45mm
; top infill extrusion width = 0.40mm
; support material extrusion width = 0.38mm
; first layer extrusion width = 0.42mm

M201 X500 Y500 Z100 E5000 ; sets maximum accelerations, mm/sec^2
M203 X500 Y500 Z10 E60 ; sets maximum feedrates, mm/sec
M204 P500 R1000 T500 ; sets acceleration (P, T) and retract acceleration (R), mm/sec^2
M205 X8.00 Y8.00 Z0.40 E5.00 ; sets the jerk limits, mm/sec
M205 S0 T0 ; sets the minimum extruding and travel feed rate, mm/sec
M107
;TYPE:Custom
G90 ; use absolute coordinates
M83 ; extruder relative mode
M140 S105 ; set final bed temp
M104 S150 ; set temporary nozzle temp to prevent oozing during homing
G4 S10 ; allow partial nozzle warmup
G28 ; home all axis
G1 Z50 F240
G1 X2 Y10 F3000
M104 S225 ; set final nozzle temp
M190 S105 ; wait for bed temp to stabilize
M109 S225 ; wait for nozzle temp to stabilize
G1 Z0.28 F240
G92 E0
G1 Y140 E10 F1500 ; prime the nozzle
G1 X2.3 F5000
G92 E0
G1 Y10 E10 F1200 ; prime the nozzle
G92 E0
G21 ; set units to millimeters
G90 ; use absolute coordinates
M83 ; use relative distances for extrusion
; Filament gcode
;LAYER_CHANGE
;Z:0.2
;HEIGHT:0.2
;BEFORE_LAYER_CHANGE
G92 E0
;0.2


G1 E-5.00000 F3600.000
G1 Z0.200 F7200.000
;AFTER_LAYER_CHANGE
;0.2
G1 X72.648 Y90.896
G1 E5.00000 F2400.000
M204 S500
;TYPE:Skirt
;WIDTH:0.42
G1 F1200.000
G1 X73.233 Y90.484 E0.02245
G1 X83.225 Y85.796 E0.34607
G1 X83.890 Y85.583 E0.02188
G1 X84.584 Y85.512 E0.02188
G1 X160.030 Y85.682 E2.36555
G1 X161.082 Y85.862 E0.03345
G1 X162.022 Y86.358 E0.03331
G1 X162.581 Y86.887 E0.02415
G1 X163.006 Y87.529 E0.02415
G1 X163.275 Y88.255 E0.02429
G1 X163.372 Y89.019 E0.02415
G1 X163.372 Y142.151 E1.66592
G1 X163.192 Y143.199 E0.03331
G1 X162.696 Y144.138 E0.03331
G1 X162.170 Y144.694 E0.02401
G1 X161.532 Y145.118 E0.02401
G1 X160.811 Y145.388 E0.02415
G1 X160.052 Y145.487 E0.02401
G1 X84.434 Y145.484 E2.37093
G1 X83.797 Y145.396 E0.02018
G1 X83.192 Y145.189 E0.02004
G1 X73.417 Y140.610 E0.33845
G1 X72.843 Y140.262 E0.02103
G1 X72.293 Y139.743 E0.02372
G1 X71.872 Y139.114 E0.02372
G1 X71.601 Y138.408 E0.02372
G1 X71.495 Y137.654 E0.02386
G1 X71.493 Y93.434 E1.38651
G1 X71.568 Y92.731 E0.02217
G1 X71.794 Y92.046 E0.02259
G1 X72.159 Y91.425 E0.02259
G1 X72.607 Y90.940 E0.02071
G1 E-3.50000 F3600.000
;WIPE_START
G1 F5760.000
G1 X73.233 Y90.484 E-0.45999
G1 X74.705 Y89.794 E-0.96501
;WIPE_END
G1 E-0.07500 F3600.000
G1 X84.579 Y88.889 F7200.000
G1 E5.00000 F2400.000
;TYPE:Support material
G1 F1200.000
G1 X84.579 Y92.980 E0.12824
G1 X85.334 Y92.980 E0.02365
G1 X85.334 Y89.059 E0.12292
G1 X86.088 Y89.059 E0.02365
G1 X86.088 Y92.980 E0.12292
G1 X86.842 Y92.980 E0.02365
G1 X86.842 Y89.059 E0.12292
G1 X87.596 Y89.059 E0.02365
G1 X87.596 Y141.941 E1.65807
G1 X88.350 Y141.941 E0.02365
G1 X88.350 Y89.059 E1.65807
G1 X89.104 Y89.059 E0.02365
G1 X89.104 Y141.941 E1.65807
G1 X89.859 Y141.941 E0.02365
G1 X89.859 Y89.059 E1.65807
G1 X90.613 Y89.059 E0.02365
G1 X90.613 Y141.941 E1.65807
G1 X91.367 Y141.941 E0.02365
G1 X91.367 Y89.059 E1.65807
G1 X92.121 Y89.059 E0.02365
G1 X92.121 Y142.111 E1.66339
G1 X86.842 Y142.111 F7200.000
G1 F1200.000
G1 X86.842 Y138.020 E0.12826
G1 X86.088 Y138.020 E0.02365
G1 X86.088 Y141.941 E0.12294
G1 X85.334 Y141.941 E0.02365
G1 X85.334 Y138.020 E0.12294
G1 X84.579 Y138.020 E0.02365
G1 X84.579 Y142.111 E0.12826
G1 E-3.50000 F3600.000
;WIPE_START
G1 F5760.000
G1 X84.579 Y139.711 E-1.42500
;WIPE_END
G1 E-0.07500 F3600.000
G1 X96.646 Y125.691 F7200.000
G1 E5.00000 F2400.000
G1 F1200.000
G1 X96.646 Y105.479 E0.63374
G1 X97.400 Y105.479 E0.02365
G1 X97.400 Y125.521 E0.62842
G1 X98.154 Y125.521 E0.02365
G1 X98.154 Y105.479 E0.62842
G1 X98.442 Y105.479 E0.00901
G1 X98.442 Y100.787 E0.14709
G1 X98.909 Y100.787 E0.01463
G1 X98.909 Y130.213 E0.92260
G1 X99.663 Y130.213 E0.02365
G1 X99.663 Y100.787 E0.92260
G1 X100.417 Y100.787 E0.02365
G1 X100.417 Y130.382 E0.92792
G1 E-3.50000 F3600.000
;WIPE_START
G1 F5760.000
G1 X100.417 Y127.982 E-1.42500
;WIPE_END
G1 E-0.07500 F3600.000
G1 X100.417 Y142.111 F7200.000
G1 E5.00000 F2400.000
G1 F1200.000
G1 X100.417 Y131.281 E0.33955
G1 X99.663 Y131.281 E0.02365
G1 X99.663 Y141.941 E0.33423
G1 X98.909 Y141.941 E0.02365
G1 X98.909 Y131.281 E0.33423
G1 X98.154 Y131.281 E0.02365
G1 X98.154 Y141.941 E0.33423
G1 X97.400 Y141.941 E0.02365
G1 X97.400 Y131.281 E0.33423
G1 X96.646 Y131.281 E0.02365
G1 X96.646 Y141.941 E0.33423
G1 X95.892 Y141.941 E0.02365
G1 X95.892 Y131.281 E0.33423
G1 X95.138 Y131.281 E0.02365
G1 X95.138 Y141.941 E0.33423
G1 X94.384 Y141.941 E0.02365
G1 X94.384 Y131.281 E0.33423
G1 X93.629 Y131.281 E0.02365
G1 X93.629 Y141.941 E0.33423
G1 X92.875 Y141.941 E0.02365
G1 X92.875 Y131.281 E0.33423
G1 X92.682 Y131.281 E0.00606
G1 X92.682 Y106.756 E0.76897
G1 X92.875 Y106.756 E0.00606
G1 X92.875 Y89.059 E0.55487
G1 X93.629 Y89.059 E0.02365
G1 X93.629 Y106.756 E0.55487
G1 X94.384 Y106.756 E0.02365
G1 X94.384 Y89.059 E0.55487
G1 X95.138 Y89.059 E0.02365
G1 X95.138 Y99.719 E0.33423
G1 X95.892 Y99.719 E0.02365
G1 X95.892 Y89.059 E0.33423
G1 X96.646 Y89.059 E0.02365
G1 X96.646 Y99.719 E0.33423
G1 X97.400 Y99.719 E0.02365
G1 X97.400 Y89.059 E0.33423
G1 X98.154 Y89.059 E0.02365
G1 X98.154 Y99.719 E0.33423
G1 X98.909 Y99.719 E0.02365
G1 X98.909 Y89.059 E0.33423
G1 X99.663 Y89.059 E0.02365
G1 X99.663 Y99.719 E0.33423
G1 X100.417 Y99.719 E0.02365
G1 X100.417 Y89.059 E0.33423
G1 X101.171 Y89.059 E0.02365
G1 X101.171 Y141.941 E1.65807
G1 X101.925 Y141.941 E0.02365
G1 X101.925 Y89.059 E1.65807
G1 X102.679 Y89.059 E0.02365
G1 X102.679 Y141.941 E1.65807
G1 X103.433 Y141.941 E0.02365
G1 X103.433 Y89.059 E1.65807
G1 X104.188 Y89.059 E0.02365
G1 X104.188 Y141.941 E1.65807
G1 X104.942 Y141.941 E0.02365
G1 X104.942 Y89.059 E1.65807
G1 X105.696 Y89.059 E0.02365
G1 X105.696 Y141.941 E1.65807
G1 X106.450 Y141.941 E0.02365
G1 X106.450 Y89.059 E1.65807
G1 X107.204 Y89.059 E0.02365
G1 X107.204 Y141.941 E1.65807
G1 X107.958 Y141.941 E0.02365
G1 X107.958 Y89.059 E1.65807
G1 X108.713 Y89.059 E0.02365
G1 X108.713 Y141.941 E1.65807
G1 X109.467 Y141.941 E0.02365
G1 X109.467 Y89.059 E1.65807
G1 X110.221 Y89.059 E0.02365
G1 X110.221 Y141.941 E1.65807
G1 X110.975 Y141.941 E0.02365
G1 X110.975 Y89.059 E1.65807
G1 X111.729 Y89.059 E0.02365
G1 X111.729 Y141.941 E1.65807
G1 X112.483 Y141.941 E0.02365
G1 X112.483 Y89.059 E1.65807
G1 X113.238 Y89.059 E0.02365
G1 X113.238 Y141.941 E1.65807
G1 X113.992 Y141.941 E0.02365
G1 X113.992 Y89.059 E1.65807
G1 X114.746 Y89.059 E0.02365
G1 X114.746 Y141.941 E1.65807
G1 X115.500 Y141.941 E0.02365
G1 X115.500 Y89.059 E1.65807
G1 X116.254 Y89.059 E0.02365
G1 X116.254 Y141.941 E1.65807
G1 X117.008 Y141.941 E0.02365
G1 X117.008 Y89.059 E1.65807
G1 X117.762 Y89.059 E0.02365
G1 X117.762 Y141.941 E1.65807
G1 X118.517 Y141.941 E0.02365
G1 X118.517 Y89.059 E1.65807
G1 X119.271 Y89.059 E0.02365
G1 X119.271 Y141.941 E1.65807
G1 X120.025 Y141.941 E0.02365
G1 X120.025 Y89.059 E1.65807
G1 X120.779 Y89.059 E0.02365
G1 X120.779 Y141.941 E1.65807
G1 X121.533 Y141.941 E0.02365
G1 X121.533 Y89.059 E1.65807
G1 X122.287 Y89.059 E0.02365
G1 X122.287 Y141.941 E1.65807
G1 X123.042 Y141.941 E0.02365
G1 X123.042 Y89.059 E1.65807
G1 X123.796 Y89.059 E0.02365
G1 X123.796 Y141.941 E1.65807
G1 X124.550 Y141.941 E0.02365
G1 X124.550 Y89.059 E1.65807
G1 X125.304 Y89.059 E0.02365
G1 X125.304 Y141.941 E1.65807
G1 X126.058 Y141.941 E0.02365
G1 X126.058 Y89.059 E1.65807
G1 X126.812 Y89.059 E0.02365
G1 X126.812 Y141.941 E1.65807
G1 X127.567 Y141.941 E0.02365
G1 X127.567 Y89.059 E1.65807
G1 X128.321 Y89.059 E0.02365
G1 X128.321 Y99.719 E0.33423
G1 X129.075 Y99.719 E0.02365
G1 X129.075 Y89.059 E0.33423
G1 X129.829 Y89.059 E0.02365
G1 X129.829 Y99.719 E0.33423
G1 X130.583 Y99.719 E0.02365
G1 X130.583 Y89.059 E0.33423
G1 X131.337 Y89.059 E0.02365
G1 X131.337 Y99.719 E0.33423
G1 X132.091 Y99.719 E0.02365
G1 X132.091 Y89.059 E0.33423
G1 X132.846 Y89.059 E0.02365
G1 X132.846 Y99.719 E0.33423
G1 X133.600 Y99.719 E0.02365
G1 X133.600 Y89.059 E0.33423
G1 X134.354 Y89.059 E0.02365
G1 X134.354 Y99.719 E0.33423
G1 X135.108 Y99.719 E0.02365
G1 X135.108 Y89.059 E0.33423
G1 X135.862 Y89.059 E0.02365
G1 X135.862 Y99.719 E0.33423
G1 X136.616 Y99.719 E0.02365
G1 X136.616 Y89.059 E0.33423
G1 X137.371 Y89.059 E0.02365
G1 X137.371 Y99.719 E0.33423
G1 X138.125 Y99.719 E0.02365
G1 X138.125 Y89.059 E0.33423
G1 X138.879 Y89.059 E0.02365
G1 X138.879 Y99.719 E0.33423
G1 X139.633 Y99.719 E0.02365
G1 X139.633 Y89.059 E0.33423
G1 X140.387 Y89.059 E0.02365
G1 X140.387 Y99.719 E0.33423
G1 X141.141 Y99.719 E0.02365
G1 X141.141 Y89.059 E0.33423
G1 X141.896 Y89.059 E0.02365
G1 X141.896 Y99.719 E0.33423
G1 X142.650 Y99.719 E0.02365
G1 X142.650 Y89.059 E0.33423
G1 X143.404 Y89.059 E0.02365
G1 X143.404 Y99.719 E0.33423
G1 X144.158 Y99.719 E0.02365
G1 X144.158 Y89.059 E0.33423
G1 X144.912 Y89.059 E0.02365
G1 X144.912 Y99.719 E0.33423
G1 X145.666 Y99.719 E0.02365
G1 X145.666 Y89.059 E0.33423
G1 X146.421 Y89.059 E0.02365
G1 X146.421 Y99.719 E0.33423
G1 X147.175 Y99.719 E0.02365
G1 X147.175 Y89.059 E0.33423
G1 X147.929 Y89.059 E0.02365
G1 X147.929 Y99.719 E0.33423
G1 X148.683 Y99.719 E0.02365
G1 X148.683 Y89.059 E0.33423
G1 X149.437 Y89.059 E0.02365
G1 X149.437 Y99.889 E0.33955
G1 E-3.50000 F3600.000
;WIPE_START
G1 F5760.000
G1 X149.437 Y97.489 E-1.42500
;WIPE_END
G1 E-0.07500 F3600.000
G1 X141.896 Y107.655 F7200.000
G1 E5.00000 F2400.000
G1 F1200.000
G1 X141.896 Y120.830 E0.41310
G1 X141.141 Y120.830 E0.02365
G1 X141.141 Y107.824 E0.40778
G1 X140.387 Y107.824 E0.02365
G1 X140.387 Y120.830 E0.40778
G1 X139.633 Y120.830 E0.02365
G1 X139.633 Y107.824 E0.40778
G1 X139.595 Y107.824 E0.00119
G1 X139.595 Y105.479 E0.07355
G1 X138.879 Y105.479 E0.02246
G1 X138.879 Y123.176 E0.55487
G1 X138.125 Y123.176 E0.02365
G1 X138.125 Y105.479 E0.55487
G1 X137.371 Y105.479 E0.02365
G1 X137.371 Y123.176 E0.55487
G1 X136.616 Y123.176 E0.02365
G1 X136.616 Y105.479 E0.55487
G1 X135.862 Y105.479 E0.02365
G1 X135.862 Y123.176 E0.55487
G1 X135.108 Y123.176 E0.02365
G1 X135.108 Y105.479 E0.55487
G1 X134.354 Y105.479 E0.02365
G1 X134.354 Y123.176 E0.55487
G1 X133.600 Y123.176 E0.02365
G1 X133.600 Y105.479 E0.55487
G1 X132.846 Y105.479 E0.02365
G1 X132.846 Y123.176 E0.55487
G1 X132.558 Y123.176 E0.00901
G1 X132.558 Y125.521 E0.07355
G1 X132.091 Y125.521 E0.01463
G1 X132.091 Y105.479 E0.62842
G1 X131.337 Y105.479 E0.02365
G1 X131.337 Y125.521 E0.62842
G1 X130.583 Y125.521 E0.02365
G1 X130.583 Y105.479 E0.62842
G1 X130.213 Y105.479 E0.01162
G1 X130.213 Y100.787 E0.14709
G1 X129.829 Y100.787 E0.01202
G1 X129.829 Y130.213 E0.92260
G1 X129.075 Y130.213 E0.02365
G1 X129.075 Y100.787 E0.92260
G1 X128.321 Y100.787 E0.02365
G1 X128.321 Y130.213 E0.92260
G1 X127.867 Y130.213 E0.01423
G1 X127.867 Y131.281 E0.03350
G1 X128.321 Y131.281 E0.01423
G1 X128.321 Y141.941 E0.33423
G1 X129.075 Y141.941 E0.02365
G1 X129.075 Y131.281 E0.33423
G1 X129.829 Y131.281 E0.02365
G1 X129.829 Y141.941 E0.33423
G1 X130.583 Y141.941 E0.02365
G1 X130.583 Y131.281 E0.33423
G1 X131.337 Y131.281 E0.02365
G1 X131.337 Y141.941 E0.33423
G1 X132.091 Y141.941 E0.02365
G1 X132.091 Y131.281 E0.33423
G1 X132.846 Y131.281 E0.02365
G1 X132.846 Y141.941 E0.33423
G1 X133.600 Y141.941 E0.02365
G1 X133.600 Y131.281 E0.33423
G1 X134.354 Y131.281 E0.02365
G1 X134.354 Y141.941 E0.33423
G1 X135.108 Y141.941 E0.02365
G1 X135.108 Y131.281 E0.33423
G1 X135.862 Y131.281 E0.02365
G1 X135.862 Y141.941 E0.33423
G1 X136.616 Y141.941 E0.02365
G1 X136.616 Y131.281 E0.33423
G1 X137.371 Y131.281 E0.02365
G1 X137.371 Y141.941 E0.33423
G1 X138.125 Y141.941 E0.02365
G1 X138.125 Y131.281 E0.33423
G1 X138.879 Y131.281 E0.02365
G1 X138.879 Y141.941 E0.33423
G1 X139.633 Y141.941 E0.02365
G1 X139.633 Y131.281 E0.33423
G1 X140.387 Y131.281 E0.02365
G1 X140.387 Y141.941 E0.33423
G1 X141.141 Y141.941 E0.02365
G1 X141.141 Y131.281 E0.33423
G1 X141.896 Y131.281 E0.02365
G1 X141.896 Y141.941 E0.33423
G1 X142.650 Y141.941 E0.02365
G1 X142.650 Y131.281 E0.33423
G1 X143.404 Y131.281 E0.02365
G1 X143.404 Y141.941 E0.33423
G1 X144.158 Y141.941 E0.02365
G1 X144.158 Y131.281 E0.33423
G1 X144.912 Y131.281 E0.02365
G1 X144.912 Y141.941 E0.33423
G1 X145.666 Y141.941 E0.02365
G1 X145.666 Y131.281 E0.33423
G1 X146.421 Y131.281 E0.02365
G1 X146.421 Y141.941 E0.33423
G1 X147.175 Y141.941 E0.02365
G1 X147.175 Y131.281 E0.33423
G1 X147.929 Y131.281 E0.02365
G1 X147.929 Y141.941 E0.33423
G1 X148.683 Y141.941 E0.02365
G1 X148.683 Y131.281 E0.33423
G1 X149.437 Y131.281 E0.02365
G1 X149.437 Y141.941 E0.33423
G1 X150.191 Y141.941 E0.02365
G1 X150.191 Y89.059 E1.65807
G1 X150.945 Y89.059 E0.02365
G1 X150.945 Y141.941 E1.65807
G1 X151.700 Y141.941 E0.02365
G1 X151.700 Y89.059 E1.65807
G1 X152.454 Y89.059 E0.02365
G1 X152.454 Y141.941 E1.65807
G1 X153.208 Y141.941 E0.02365
G1 X153.208 Y89.059 E1.65807
G1 X153.962 Y89.059 E0.02365
G1 X153.962 Y141.941 E1.65807
G1 X154.716 Y141.941 E0.02365
G1 X154.716 Y89.059 E1.65807
G1 X155.470 Y89.059 E0.02365
G1 X155.470 Y141.941 E1.65807
G1 X156.225 Y141.941 E0.02365
G1 X156.225 Y89.059 E1.65807
G1 X156.979 Y89.059 E0.02365
G1 X156.979 Y141.941 E1.65807
G1 X157.733 Y141.941 E0.02365
G1 X157.733 Y89.059 E1.65807
G1 X158.487 Y89.059 E0.02365
G1 X158.487 Y141.941 E1.65807
G1 X159.241 Y141.941 E0.02365
G1 X159.241 Y89.059 E1.65807
G1 X159.995 Y89.059 E0.02365
G1 X159.995 Y142.111 E1.66339
G1 E-3.50000 F3600.000
;WIPE_START
G1 F5760.000
G1 X159.995 Y139.711 E-1.42500
;WIPE_END
G1 E-0.07500 F3600.000
G1 X85.855 Y136.120 F7200.000
G1 E5.00000 F2400.000
;TYPE:Perimeter
G1 F1200.000
G1 X76.312 Y136.120 E0.29922
G1 X76.312 Y94.879 E1.29307
G1 X85.849 Y94.879 E0.29903
G1 X85.855 Y136.060 E1.29119
G1 X86.232 Y136.497 F7200.000
G1 F1200.000
G1 X75.935 Y136.497 E0.32287
G1 X75.935 Y94.502 E1.31672
G1 X86.226 Y94.502 E0.32268
G1 X86.232 Y136.437 E1.31484
G1 X86.609 Y136.874 F7200.000
G1 F1200.000
G1 X75.557 Y136.874 E0.34652
G1 X75.557 Y94.125 E1.34036
G1 X86.603 Y94.125 E0.34632
G1 X86.609 Y136.814 E1.33848
G1 X86.986 Y137.251 F7200.000
;TYPE:External perimeter
G1 F1200.000
G1 X75.180 Y137.251 E0.37017
G1 X75.180 Y93.748 E1.36401
G1 X86.980 Y93.748 E0.36996
G1 X86.986 Y137.191 E1.36213
G1 X86.624 Y137.083 F7200.000
G1 E-3.50000 F3600.000
;WIPE_START
G1 F5760.000
G1 X84.586 Y137.203 E-1.42500
;WIPE_END
G1 E-0.07500 F3600.000
G1 X85.736 Y95.759 F7200.000
G1 E5.00000 F2400.000
;TYPE:Solid infill
;WIDTH:0.422055
G1 F1200.000
G1 X85.139 Y95.162 E0.02662
G1 X84.603 Y95.162 E0.01690
G1 X85.566 Y96.126 E0.04296
G1 X85.566 Y96.662 E0.01691
G1 X84.066 Y95.162 E0.06687
G1 X83.530 Y95.162 E0.01690
G1 X85.566 Y97.198 E0.09078
G1 X85.566 Y97.734 E0.01691
G1 X82.994 Y95.162 E0.11469
G1 X82.458 Y95.162 E0.01690
G1 X85.567 Y98.271 E0.13859
G1 X85.567 Y98.807 E0.01691
G1 X81.922 Y95.162 E0.16250
G1 X81.386 Y95.162 E0.01690
G1 X85.567 Y99.343 E0.18641
G1 X85.567 Y99.880 E0.01691
G1 X80.849 Y95.162 E0.21032
G1 X80.313 Y95.162 E0.01690
G1 X85.567 Y100.416 E0.23423
G1 X85.567 Y100.952 E0.01691
G1 X79.777 Y95.162 E0.25813
G1 X79.241 Y95.162 E0.01690
G1 X85.567 Y101.488 E0.28204
G1 X85.567 Y102.025 E0.01691
G1 X78.705 Y95.162 E0.30595
G1 X78.168 Y95.162 E0.01690
G1 X85.567 Y102.561 E0.32986
G1 X85.567 Y103.097 E0.01691
G1 X77.632 Y95.162 E0.35377
G1 X77.096 Y95.162 E0.01690
G1 X85.567 Y103.633 E0.37768
G1 X85.567 Y104.170 E0.01691
G1 X76.594 Y95.197 E0.40005
G1 X76.594 Y95.733 E0.01690
G1 X85.567 Y104.706 E0.40005
G1 X85.568 Y105.242 E0.01691
G1 X76.594 Y96.269 E0.40005
G1 X76.594 Y96.805 E0.01690
G1 X85.568 Y105.778 E0.40006
G1 X85.568 Y106.315 E0.01691
G1 X76.594 Y97.341 E0.40006
G1 X76.594 Y97.877 E0.01690
G1 X85.568 Y106.851 E0.40006
G1 X85.568 Y107.387 E0.01691
G1 X76.594 Y98.414 E0.40007
G1 X76.594 Y98.950 E0.01690
G1 X85.568 Y107.923 E0.40007
G1 X85.568 Y108.460 E0.01691
G1 X76.594 Y99.486 E0.40007
G1 X76.594 Y100.022 E0.01690
G1 X85.568 Y108.996 E0.40008
G1 X85.568 Y109.532 E0.01691
