; generated by PrusaSlicer 2.3.3+win64 on 2021-10-11 at 15:45:56 UTC

; 

; external perimeters extrusion width = 0.45mm
; perimeters extrusion width = 0.45mm
; infill extrusion width = 0.45mm
; solid infill extrusion width = 0.45mm
; top infill extrusion width = 0.40mm
; support material extrusion width = 0.38mm
; first layer extrusion width = 0.42mm

M201 X500 Y500 Z100 E5000 ; sets maximum accelerations, mm/sec^2
M203 X500 Y500 Z10 E60 ; sets maximum feedrates, mm/sec
M204 P500 R1000 T500 ; sets acceleration (P, T) and retract acceleration (R), mm/sec^2
M205 X8.00 Y8.00 Z0.40 E5.00 ; sets the jerk limits, mm/sec
M205 S0 T0 ; sets the minimum extruding and travel feed rate, mm/sec
M107
;TYPE:Custom
G90 ; use absolute coordinates
M83 ; extruder relative mode
M140 S105 ; set final bed temp
M104 S150 ; set temporary nozzle temp to prevent oozing during homing
G4 S10 ; allow partial nozzle warmup
G28 ; home all axis
G1 Z50 F240
G1 X2 Y10 F3000
M104 S225 ; set final nozzle temp
M190 S105 ; wait for bed temp to stabilize
M109 S225 ; wait for nozzle temp to stabilize
G1 Z0.28 F240
G92 E0
G1 Y140 E10 F1500 ; prime the nozzle
G1 X2.3 F5000
G92 E0
G1 Y10 E10 F1200 ; prime the nozzle
G92 E0
G21 ; set units to millimeters
G90 ; use absolute coordinates
M83 ; use relative distances for extrusion
; Filament gcode
;LAYER_CHANGE
;Z:0.2
;HEIGHT:0.2
;BEFORE_LAYER_CHANGE
G92 E0
;0.2


G1 E-5.00000 F3600.000
G1 Z0.200 F7200.000
;AFTER_LAYER_CHANGE
;0.2
G1 X68.655 Y86.464
G1 E5.00000 F2400.000
M204 S500
;TYPE:Skirt
;WIDTH:0.42
G1 F1200.000
G1 X69.165 Y86.057 E0.02047
G1 X69.740 Y85.758 E0.02032
G1 X70.362 Y85.574 E0.02032
G1 X71.007 Y85.512 E0.02032
G1 X160.020 Y85.682 E2.79094
G1 X160.951 Y85.820 E0.02951
G1 X161.808 Y86.210 E0.02951
G1 X162.450 Y86.740 E0.02613
G1 X162.941 Y87.408 E0.02598
G1 X163.255 Y88.175 E0.02598
G1 X163.372 Y89.000 E0.02613
G1 X163.372 Y142.142 E1.66624
G1 X163.234 Y143.069 E0.02937
G1 X162.846 Y143.921 E0.02937
G1 X162.312 Y144.567 E0.02627
G1 X161.636 Y145.062 E0.02627
G1 X160.859 Y145.375 E0.02627
G1 X160.029 Y145.487 E0.02627
G1 X72.486 Y145.487 E2.74486
G1 X70.305 Y145.245 E0.06881
G1 X69.728 Y145.067 E0.01891
G1 X69.192 Y144.790 E0.01891
G1 X68.556 Y144.267 E0.02584
G1 X68.068 Y143.608 E0.02570
G1 X67.751 Y142.847 E0.02584
G1 X67.629 Y142.037 E0.02570
G1 X67.629 Y88.785 E1.66966
G1 X67.712 Y88.138 E0.02047
G1 X67.917 Y87.522 E0.02032
G1 X68.235 Y86.958 E0.02032
G1 X68.616 Y86.510 E0.01844
G1 E-3.50000 F3600.000
;WIPE_START
G1 F5760.000
G1 X69.165 Y86.057 E-0.42259
G1 X69.740 Y85.758 E-0.38489
G1 X70.362 Y85.574 E-0.38489
G1 X70.752 Y85.537 E-0.23264
;WIPE_END
G1 E-0.07500 F3600.000
G1 X71.005 Y88.889 F7200.000
G1 E5.00000 F2400.000
;TYPE:Support material
G1 F1200.000
G1 X71.005 Y141.941 E1.66339
G1 X71.759 Y141.941 E0.02365
G1 X71.759 Y89.059 E1.65807
G1 X72.513 Y89.059 E0.02365
G1 X72.513 Y142.111 E1.66339
G1 E-3.50000 F3600.000
;WIPE_START
G1 F5760.000
G1 X72.513 Y139.711 E-1.42500
;WIPE_END
G1 E-0.07500 F3600.000
G1 X78.941 Y139.112 F7200.000
G1 E5.00000 F2400.000
;TYPE:Support material interface
;WIDTH:0.38
G1 F1200.000
G1 X78.941 Y134.265 E0.13585
G1 X79.486 Y134.265 E0.01529
G1 X79.486 Y138.957 E0.13149
G1 X80.032 Y138.957 E0.01529
G1 X80.032 Y134.265 E0.13149
G1 X80.578 Y134.265 E0.01529
G1 X80.578 Y138.957 E0.13149
G1 X81.123 Y138.957 E0.01529
G1 X81.123 Y134.265 E0.13149
G1 X81.669 Y134.265 E0.01529
G1 X81.669 Y138.957 E0.13149
G1 X82.215 Y138.957 E0.01529
G1 X82.215 Y134.265 E0.13149
G1 X82.760 Y134.265 E0.01529
G1 X82.760 Y138.957 E0.13149
G1 X83.306 Y138.957 E0.01529
G1 X83.306 Y134.265 E0.13149
G1 X83.852 Y134.265 E0.01529
G1 X83.852 Y138.957 E0.13149
G1 X84.397 Y138.957 E0.01529
G1 X84.397 Y134.265 E0.13149
G1 X84.943 Y134.265 E0.01529
G1 X84.943 Y138.957 E0.13149
G1 X85.489 Y138.957 E0.01529
G1 X85.489 Y134.265 E0.13149
G1 X86.034 Y134.265 E0.01529
G1 X86.034 Y138.957 E0.13149
G1 X86.580 Y138.957 E0.01529
G1 X86.580 Y134.265 E0.13149
G1 X87.126 Y134.265 E0.01529
G1 X87.126 Y138.957 E0.13149
G1 X87.671 Y138.957 E0.01529
G1 X87.671 Y134.265 E0.13149
G1 X88.217 Y134.265 E0.01529
G1 X88.217 Y138.957 E0.13149
G1 X88.763 Y138.957 E0.01529
G1 X88.763 Y134.265 E0.13149
G1 X89.308 Y134.265 E0.01529
G1 X89.308 Y138.957 E0.13149
G1 X89.854 Y138.957 E0.01529
G1 X89.854 Y134.265 E0.13149
G1 X90.400 Y134.265 E0.01529
G1 X90.400 Y138.957 E0.13149
G1 X90.945 Y138.957 E0.01529
G1 X90.945 Y134.265 E0.13149
G1 X91.491 Y134.265 E0.01529
G1 X91.491 Y138.957 E0.13149
G1 X92.036 Y138.957 E0.01529
G1 X92.036 Y134.265 E0.13149
G1 X92.582 Y134.265 E0.01529
G1 X92.582 Y138.957 E0.13149
G1 X93.128 Y138.957 E0.01529
G1 X93.128 Y134.265 E0.13149
G1 X93.673 Y134.265 E0.01529
G1 X93.673 Y138.957 E0.13149
G1 X94.219 Y138.957 E0.01529
G1 X94.219 Y134.265 E0.13149
G1 X94.765 Y134.265 E0.01529
G1 X94.765 Y138.957 E0.13149
G1 X95.310 Y138.957 E0.01529
G1 X95.310 Y134.265 E0.13149
G1 X95.856 Y134.265 E0.01529
G1 X95.856 Y138.957 E0.13149
G1 X96.402 Y138.957 E0.01529
G1 X96.402 Y134.265 E0.13149
G1 X96.947 Y134.265 E0.01529
G1 X96.947 Y138.957 E0.13149
G1 X97.493 Y138.957 E0.01529
G1 X97.493 Y134.265 E0.13149
G1 X98.039 Y134.265 E0.01529
G1 X98.039 Y138.957 E0.13149
G1 X98.584 Y138.957 E0.01529
G1 X98.584 Y134.265 E0.13149
G1 X99.130 Y134.265 E0.01529
G1 X99.130 Y138.957 E0.13149
G1 X99.676 Y138.957 E0.01529
G1 X99.676 Y134.265 E0.13149
G1 X100.221 Y134.265 E0.01529
G1 X100.221 Y138.957 E0.13149
G1 X100.767 Y138.957 E0.01529
G1 X100.767 Y134.265 E0.13149
G1 X101.313 Y134.265 E0.01529
G1 X101.313 Y138.957 E0.13149
G1 X101.858 Y138.957 E0.01529
G1 X101.858 Y134.265 E0.13149
G1 X102.404 Y134.265 E0.01529
G1 X102.404 Y138.957 E0.13149
G1 X102.950 Y138.957 E0.01529
G1 X102.950 Y134.265 E0.13149
G1 X103.495 Y134.265 E0.01529
G1 X103.495 Y138.957 E0.13149
G1 X104.041 Y138.957 E0.01529
G1 X104.041 Y134.265 E0.13149
G1 X104.587 Y134.265 E0.01529
G1 X104.587 Y138.957 E0.13149
G1 X105.132 Y138.957 E0.01529
G1 X105.132 Y134.265 E0.13149
G1 X105.678 Y134.265 E0.01529
G1 X105.678 Y138.957 E0.13149
G1 X106.224 Y138.957 E0.01529
G1 X106.224 Y134.265 E0.13149
G1 X106.769 Y134.265 E0.01529
G1 X106.769 Y138.957 E0.13149
G1 X107.315 Y138.957 E0.01529
G1 X107.315 Y134.265 E0.13149
G1 X107.861 Y134.265 E0.01529
G1 X107.861 Y138.957 E0.13149
G1 X108.406 Y138.957 E0.01529
G1 X108.406 Y134.265 E0.13149
G1 X108.952 Y134.265 E0.01529
G1 X108.952 Y138.957 E0.13149
G1 X109.498 Y138.957 E0.01529
G1 X109.498 Y134.265 E0.13149
G1 X110.043 Y134.265 E0.01529
G1 X110.043 Y138.957 E0.13149
G1 X110.589 Y138.957 E0.01529
G1 X110.589 Y134.265 E0.13149
G1 X111.135 Y134.265 E0.01529
G1 X111.135 Y138.957 E0.13149
G1 X111.680 Y138.957 E0.01529
G1 X111.680 Y134.265 E0.13149
G1 X112.226 Y134.265 E0.01529
G1 X112.226 Y138.957 E0.13149
G1 X112.772 Y138.957 E0.01529
G1 X112.772 Y134.265 E0.13149
G1 X113.317 Y134.265 E0.01529
G1 X113.317 Y138.957 E0.13149
G1 X113.863 Y138.957 E0.01529
G1 X113.863 Y134.265 E0.13149
G1 X114.409 Y134.265 E0.01529
G1 X114.409 Y138.957 E0.13149
G1 X114.954 Y138.957 E0.01529
G1 X114.954 Y134.265 E0.13149
G1 X115.500 Y134.265 E0.01529
G1 X115.500 Y138.957 E0.13149
G1 X116.046 Y138.957 E0.01529
G1 X116.046 Y134.265 E0.13149
G1 X116.591 Y134.265 E0.01529
G1 X116.591 Y138.957 E0.13149
G1 X117.137 Y138.957 E0.01529
G1 X117.137 Y134.265 E0.13149
G1 X117.683 Y134.265 E0.01529
G1 X117.683 Y138.957 E0.13149
G1 X118.228 Y138.957 E0.01529
G1 X118.228 Y134.265 E0.13149
G1 X118.774 Y134.265 E0.01529
G1 X118.774 Y138.957 E0.13149
G1 X119.320 Y138.957 E0.01529
G1 X119.320 Y134.265 E0.13149
G1 X119.865 Y134.265 E0.01529
G1 X119.865 Y138.957 E0.13149
G1 X120.411 Y138.957 E0.01529
G1 X120.411 Y134.265 E0.13149
G1 X120.957 Y134.265 E0.01529
G1 X120.957 Y138.957 E0.13149
G1 X121.502 Y138.957 E0.01529
G1 X121.502 Y134.265 E0.13149
G1 X122.048 Y134.265 E0.01529
G1 X122.048 Y138.957 E0.13149
G1 X122.594 Y138.957 E0.01529
G1 X122.594 Y134.265 E0.13149
G1 X123.139 Y134.265 E0.01529
G1 X123.139 Y138.957 E0.13149
G1 X123.685 Y138.957 E0.01529
G1 X123.685 Y134.265 E0.13149
G1 X124.231 Y134.265 E0.01529
G1 X124.231 Y138.957 E0.13149
G1 X124.776 Y138.957 E0.01529
G1 X124.776 Y134.265 E0.13149
G1 X125.322 Y134.265 E0.01529
G1 X125.322 Y138.957 E0.13149
G1 X125.868 Y138.957 E0.01529
G1 X125.868 Y134.265 E0.13149
G1 X126.413 Y134.265 E0.01529
G1 X126.413 Y138.957 E0.13149
G1 X126.959 Y138.957 E0.01529
G1 X126.959 Y134.265 E0.13149
G1 X127.505 Y134.265 E0.01529
G1 X127.505 Y138.957 E0.13149
G1 X128.050 Y138.957 E0.01529
G1 X128.050 Y134.265 E0.13149
G1 X128.596 Y134.265 E0.01529
G1 X128.596 Y138.957 E0.13149
G1 X129.142 Y138.957 E0.01529
G1 X129.142 Y134.265 E0.13149
G1 X129.687 Y134.265 E0.01529
G1 X129.687 Y138.957 E0.13149
G1 X130.233 Y138.957 E0.01529
G1 X130.233 Y134.265 E0.13149
G1 X130.779 Y134.265 E0.01529
G1 X130.779 Y138.957 E0.13149
G1 X131.324 Y138.957 E0.01529
G1 X131.324 Y134.265 E0.13149
G1 X131.870 Y134.265 E0.01529
G1 X131.870 Y138.957 E0.13149
G1 X132.416 Y138.957 E0.01529
G1 X132.416 Y134.265 E0.13149
G1 X132.961 Y134.265 E0.01529
G1 X132.961 Y138.957 E0.13149
G1 X133.507 Y138.957 E0.01529
G1 X133.507 Y134.265 E0.13149
G1 X134.053 Y134.265 E0.01529
G1 X134.053 Y138.957 E0.13149
G1 X134.598 Y138.957 E0.01529
G1 X134.598 Y134.265 E0.13149
G1 X135.144 Y134.265 E0.01529
G1 X135.144 Y138.957 E0.13149
G1 X135.690 Y138.957 E0.01529
G1 X135.690 Y134.265 E0.13149
G1 X136.235 Y134.265 E0.01529
G1 X136.235 Y138.957 E0.13149
G1 X136.781 Y138.957 E0.01529
G1 X136.781 Y134.265 E0.13149
G1 X137.327 Y134.265 E0.01529
G1 X137.327 Y138.957 E0.13149
G1 X137.872 Y138.957 E0.01529
G1 X137.872 Y134.265 E0.13149
G1 X138.418 Y134.265 E0.01529
G1 X138.418 Y138.957 E0.13149
G1 X138.964 Y138.957 E0.01529
G1 X138.964 Y134.265 E0.13149
G1 X139.509 Y134.265 E0.01529
G1 X139.509 Y138.957 E0.13149
G1 X140.055 Y138.957 E0.01529
G1 X140.055 Y134.265 E0.13149
G1 X140.600 Y134.265 E0.01529
G1 X140.600 Y138.957 E0.13149
G1 X141.146 Y138.957 E0.01529
G1 X141.146 Y134.265 E0.13149
G1 X141.692 Y134.265 E0.01529
G1 X141.692 Y138.957 E0.13149
G1 X142.237 Y138.957 E0.01529
G1 X142.237 Y134.265 E0.13149
G1 X142.783 Y134.265 E0.01529
G1 X142.783 Y138.957 E0.13149
G1 X143.329 Y138.957 E0.01529
G1 X143.329 Y134.265 E0.13149
G1 X143.874 Y134.265 E0.01529
G1 X143.874 Y138.957 E0.13149
G1 X144.420 Y138.957 E0.01529
G1 X144.420 Y134.265 E0.13149
G1 X144.966 Y134.265 E0.01529
G1 X144.966 Y138.957 E0.13149
G1 X145.511 Y138.957 E0.01529
G1 X145.511 Y134.265 E0.13149
G1 X146.057 Y134.265 E0.01529
G1 X146.057 Y138.957 E0.13149
G1 X146.603 Y138.957 E0.01529
G1 X146.603 Y134.265 E0.13149
G1 X147.148 Y134.265 E0.01529
G1 X147.148 Y138.957 E0.13149
G1 X147.694 Y138.957 E0.01529
G1 X147.694 Y134.265 E0.13149
G1 X148.240 Y134.265 E0.01529
G1 X148.240 Y138.957 E0.13149
G1 X148.785 Y138.957 E0.01529
G1 X148.785 Y134.265 E0.13149
G1 X149.331 Y134.265 E0.01529
G1 X149.331 Y138.957 E0.13149
G1 X149.877 Y138.957 E0.01529
G1 X149.877 Y134.265 E0.13149
G1 X150.422 Y134.265 E0.01529
G1 X150.422 Y138.957 E0.13149
G1 X150.968 Y138.957 E0.01529
G1 X150.968 Y134.265 E0.13149
G1 X151.514 Y134.265 E0.01529
G1 X151.514 Y138.957 E0.13149
G1 X152.059 Y138.957 E0.01529
G1 X152.059 Y134.265 E0.13149
G1 X152.605 Y134.265 E0.01529
G1 X152.605 Y139.112 E0.13585
G1 X159.995 Y142.111 F7200.000
;TYPE:Support material
;WIDTH:0.42
G1 F1200.000
G1 X159.995 Y89.059 E1.66339
G1 X159.241 Y89.059 E0.02365
G1 X159.241 Y141.941 E1.65807
G1 X158.487 Y141.941 E0.02365
G1 X158.487 Y89.059 E1.65807
G1 X157.733 Y89.059 E0.02365
G1 X157.733 Y91.682 E0.08224
G1 X156.979 Y91.682 E0.02365
G1 X156.979 Y89.059 E0.08224
G1 X156.225 Y89.059 E0.02365
G1 X156.225 Y91.682 E0.08224
G1 X155.470 Y91.682 E0.02365
G1 X155.470 Y89.059 E0.08224
G1 X154.716 Y89.059 E0.02365
G1 X154.716 Y91.682 E0.08224
G1 X153.962 Y91.682 E0.02365
G1 X153.962 Y89.059 E0.08224
G1 X153.208 Y89.059 E0.02365
G1 X153.208 Y91.682 E0.08224
G1 X152.454 Y91.682 E0.02365
G1 X152.454 Y89.059 E0.08224
G1 X151.700 Y89.059 E0.02365
G1 X151.700 Y91.682 E0.08224
G1 X150.945 Y91.682 E0.02365
G1 X150.945 Y89.059 E0.08224
G1 X150.191 Y89.059 E0.02365
G1 X150.191 Y91.682 E0.08224
G1 X149.437 Y91.682 E0.02365
G1 X149.437 Y89.059 E0.08224
G1 X148.683 Y89.059 E0.02365
G1 X148.683 Y91.682 E0.08224
G1 X147.929 Y91.682 E0.02365
G1 X147.929 Y89.059 E0.08224
G1 X147.175 Y89.059 E0.02365
G1 X147.175 Y91.682 E0.08224
G1 X146.421 Y91.682 E0.02365
G1 X146.421 Y89.059 E0.08224
G1 X145.666 Y89.059 E0.02365
G1 X145.666 Y91.682 E0.08224
G1 X144.912 Y91.682 E0.02365
G1 X144.912 Y89.059 E0.08224
G1 X144.158 Y89.059 E0.02365
G1 X144.158 Y91.682 E0.08224
G1 X143.404 Y91.682 E0.02365
G1 X143.404 Y89.059 E0.08224
G1 X142.650 Y89.059 E0.02365
G1 X142.650 Y91.682 E0.08224
G1 X141.896 Y91.682 E0.02365
G1 X141.896 Y89.059 E0.08224
G1 X141.141 Y89.059 E0.02365
G1 X141.141 Y91.682 E0.08224
G1 X140.387 Y91.682 E0.02365
G1 X140.387 Y89.059 E0.08224
G1 X139.633 Y89.059 E0.02365
G1 X139.633 Y91.682 E0.08224
G1 X138.879 Y91.682 E0.02365
G1 X138.879 Y89.059 E0.08224
G1 X138.125 Y89.059 E0.02365
G1 X138.125 Y91.682 E0.08224
G1 X137.371 Y91.682 E0.02365
G1 X137.371 Y89.059 E0.08224
G1 X136.616 Y89.059 E0.02365
G1 X136.616 Y91.682 E0.08224
G1 X135.862 Y91.682 E0.02365
G1 X135.862 Y89.059 E0.08224
G1 X135.108 Y89.059 E0.02365
G1 X135.108 Y91.682 E0.08224
G1 X134.354 Y91.682 E0.02365
G1 X134.354 Y89.059 E0.08224
G1 X133.600 Y89.059 E0.02365
G1 X133.600 Y91.682 E0.08224
G1 X132.846 Y91.682 E0.02365
G1 X132.846 Y89.059 E0.08224
G1 X132.091 Y89.059 E0.02365
G1 X132.091 Y91.682 E0.08224
G1 X131.337 Y91.682 E0.02365
G1 X131.337 Y89.059 E0.08224
G1 X130.583 Y89.059 E0.02365
G1 X130.583 Y91.682 E0.08224
G1 X129.829 Y91.682 E0.02365
G1 X129.829 Y89.059 E0.08224
G1 X129.075 Y89.059 E0.02365
G1 X129.075 Y91.682 E0.08224
G1 X128.321 Y91.682 E0.02365
G1 X128.321 Y89.059 E0.08224
G1 X127.567 Y89.059 E0.02365
G1 X127.567 Y91.682 E0.08224
G1 X126.812 Y91.682 E0.02365
G1 X126.812 Y89.059 E0.08224
G1 X126.058 Y89.059 E0.02365
G1 X126.058 Y91.682 E0.08224
G1 X125.304 Y91.682 E0.02365
G1 X125.304 Y89.059 E0.08224
G1 X124.550 Y89.059 E0.02365
G1 X124.550 Y91.682 E0.08224
G1 X123.796 Y91.682 E0.02365
G1 X123.796 Y89.059 E0.08224
G1 X123.042 Y89.059 E0.02365
G1 X123.042 Y91.682 E0.08224
G1 X122.287 Y91.682 E0.02365
G1 X122.287 Y89.059 E0.08224
G1 X121.533 Y89.059 E0.02365
G1 X121.533 Y91.682 E0.08224
G1 X120.779 Y91.682 E0.02365
G1 X120.779 Y89.059 E0.08224
G1 X120.025 Y89.059 E0.02365
G1 X120.025 Y91.682 E0.08224
G1 X119.271 Y91.682 E0.02365
G1 X119.271 Y89.059 E0.08224
G1 X118.517 Y89.059 E0.02365
G1 X118.517 Y91.682 E0.08224
G1 X117.762 Y91.682 E0.02365
G1 X117.762 Y89.059 E0.08224
G1 X117.008 Y89.059 E0.02365
G1 X117.008 Y91.682 E0.08224
G1 X116.254 Y91.682 E0.02365
G1 X116.254 Y89.059 E0.08224
G1 X115.500 Y89.059 E0.02365
G1 X115.500 Y91.682 E0.08224
G1 X114.746 Y91.682 E0.02365
G1 X114.746 Y89.059 E0.08224
G1 X113.992 Y89.059 E0.02365
G1 X113.992 Y91.682 E0.08224
G1 X113.238 Y91.682 E0.02365
G1 X113.238 Y89.059 E0.08224
G1 X112.483 Y89.059 E0.02365
G1 X112.483 Y91.682 E0.08224
G1 X111.729 Y91.682 E0.02365
G1 X111.729 Y89.059 E0.08224
G1 X110.975 Y89.059 E0.02365
G1 X110.975 Y91.682 E0.08224
G1 X110.221 Y91.682 E0.02365
G1 X110.221 Y89.059 E0.08224
G1 X109.467 Y89.059 E0.02365
G1 X109.467 Y91.682 E0.08224
G1 X108.713 Y91.682 E0.02365
G1 X108.713 Y89.059 E0.08224
G1 X107.958 Y89.059 E0.02365
G1 X107.958 Y91.682 E0.08224
G1 X107.204 Y91.682 E0.02365
G1 X107.204 Y89.059 E0.08224
G1 X106.450 Y89.059 E0.02365
G1 X106.450 Y91.682 E0.08224
G1 X105.696 Y91.682 E0.02365
G1 X105.696 Y89.059 E0.08224
G1 X104.942 Y89.059 E0.02365
G1 X104.942 Y91.682 E0.08224
G1 X104.188 Y91.682 E0.02365
G1 X104.188 Y89.059 E0.08224
G1 X103.433 Y89.059 E0.02365
G1 X103.433 Y91.682 E0.08224
G1 X102.679 Y91.682 E0.02365
G1 X102.679 Y89.059 E0.08224
G1 X101.925 Y89.059 E0.02365
G1 X101.925 Y91.682 E0.08224
G1 X101.171 Y91.682 E0.02365
G1 X101.171 Y89.059 E0.08224
G1 X100.417 Y89.059 E0.02365
G1 X100.417 Y91.682 E0.08224
G1 X99.663 Y91.682 E0.02365
G1 X99.663 Y89.059 E0.08224
G1 X98.909 Y89.059 E0.02365
G1 X98.909 Y91.682 E0.08224
G1 X98.154 Y91.682 E0.02365
